assets/images/no-list-24px.svg

<?xml version="1.0" encoding="UTF-8" standalone="no"?>
<svg
   xmlns:dc="http://purl.org/dc/elements/1.1/"
   xmlns:cc="http://creativecommons.org/ns#"
   xmlns:rdf="http://www.w3.org/1999/02/22-rdf-syntax-ns#"
   xmlns:svg="http://www.w3.org/2000/svg"
   xmlns="http://www.w3.org/2000/svg"
   id="svg10"
   version="1.1"
   width="24"
   height="24">
  <metadata
     id="metadata16">
    <rdf:RDF>
      <cc:Work
         rdf:about="">
        <dc:format>image/svg+xml</dc:format>
        <dc:type
           rdf:resource="http://purl.org/dc/dcmitype/StillImage" />
        <dc:title></dc:title>
      </cc:Work>
    </rdf:RDF>
  </metadata>
  <defs
     id="defs14" />
  <path
     id="path2"
     d="M0 0h24v24H0z"
     fill="none" />
  <path
     d="M 4.2695312,3 3,4.2695312 l 4,4 V 9 h 0.7304688 l 2,2 H 7 v 2 h 4.730469 l 2,2 H 7 v 2 h 8.730469 l 4,4 L 21,19.730469 18.269531,17 l -2,-2 -2,-2 -2,-2 -2,-2 L 8.2695312,7 Z M 3,7 V 9 H 5 V 7 Z m 7.808594,0 2,2 H 21 V 7 Z M 3,11 v 2 h 2 v -2 z m 11.808594,0 2,2 H 21 V 11 Z M 3,15 v 2 h 2 v -2 z m 15.808594,0 2,2 H 21 v -2 z"
     style="fill-opacity:1;"
     id="path4" />
  <path
     id="path8"
     fill="none"
     d="M0 0h24v24H0z" />
</svg>

<?xml version="1.0" encoding="UTF-8" standalone="no"?>
<svg
   xmlns:dc="http://purl.org/dc/elements/1.1/"
   xmlns:cc="http://creativecommons.org/ns#"
   xmlns:rdf="http://www.w3.org/1999/02/22-rdf-syntax-ns#"
   xmlns:svg="http://www.w3.org/2000/svg"
   xmlns="http://www.w3.org/2000/svg"
   xmlns:sodipodi="http://sodipodi.sourceforge.net/DTD/sodipodi-0.dtd"
   xmlns:inkscape="http://www.inkscape.org/namespaces/inkscape"
   inkscape:version="1.0 (4035a4fb49, 2020-05-01)"
   sodipodi:docname="no-list-24px.svg"
   id="svg6"
   version="1.1"
   width="24"
   viewBox="0 0 24 24"
   height="24">
  <metadata
     id="metadata12">
    <rdf:RDF>
      <cc:Work
         rdf:about="">
        <dc:format>image/svg+xml</dc:format>
        <dc:type
           rdf:resource="http://purl.org/dc/dcmitype/StillImage" />
        <dc:title></dc:title>
      </cc:Work>
    </rdf:RDF>
  </metadata>
  <defs
     id="defs10" />
  <sodipodi:namedview
     inkscape:current-layer="svg6"
     inkscape:window-maximized="1"
     inkscape:window-y="0"
     inkscape:window-x="0"
     inkscape:cy="12.542912"
     inkscape:cx="10.841974"
     inkscape:zoom="29.622255"
     inkscape:snap-grids="true"
     showgrid="false"
     id="namedview8"
     inkscape:window-height="1163"
     inkscape:window-width="1600"
     inkscape:pageshadow="2"
     inkscape:pageopacity="0"
     guidetolerance="10"
     gridtolerance="10"
     objecttolerance="10"
     borderopacity="1"
     bordercolor="#666666"
     pagecolor="#ffffff" />
  <path
     id="path2"
     fill="none"
     d="M0 0h24v24H0z" />
  <path
     d="M 4.2695312 3 L 3 4.2695312 L 7 8.2695312 L 7 9 L 7.7304688 9 L 9.7304688 11 L 7 11 L 7 13 L 11.730469 13 L 13.730469 15 L 7 15 L 7 17 L 15.730469 17 L 19.730469 21 L 21 19.730469 L 18.269531 17 L 16.269531 15 L 14.269531 13 L 12.269531 11 L 10.269531 9 L 8.2695312 7 L 4.2695312 3 z M 3 7 L 3 9 L 5 9 L 5 7 L 3 7 z M 10.808594 7 L 12.808594 9 L 21 9 L 21 7 L 10.808594 7 z M 3 11 L 3 13 L 5 13 L 5 11 L 3 11 z M 14.808594 11 L 16.808594 13 L 21 13 L 21 11 L 14.808594 11 z M 3 15 L 3 17 L 5 17 L 5 15 L 3 15 z M 18.808594 15 L 20.808594 17 L 21 17 L 21 15 L 18.808594 15 z "
     id="path4" />
  <path
     d="M 0,-4e-7 H 24 V 24 H 0 Z"
     fill="none"
     id="path2-6" />
</svg>
